X:1
T:XIII - Hymne au soleil
T:13. Hymne au soleil
T:20 Mélodies
T:Augusta Holmès
T:(Holmès)
C:Augusta Holmès
Z:Augusta Holmès
%%score 1 { ( 2 4 ) | ( 3 5 ) }
L:1/8
Q:1/4=90
M:3/4
K:Eb
V:1 treble nm="Chant\nVoice"
V:2 treble nm="Piano"
V:4 treble 
V:3 bass 
V:5 bass 
V:1
"^à Henri REGNAULT""^Andante con moto" z6 | z6 | z6 | z6 | z6 | z6 | z6 | z6 ||!p!!<(! E2 F4 | %9
w: ||||||||So- leil|
 G2 A4 | B2 c4!<)! | F2 G2 z2 | B2 c4 | d2 e4 |!f! d2 c3 B | B4 z2 |!p!!<(! E2 F4 | G2 A4 | %18
w: sa- cré!|Splen- deur!|A- mour!|Sur- gis|de l'ombre,|O Roi ver-|meil!|Le ciel|sou- rit|
 B2 c4!<)! | F2 G2 z2 |!<(! B2 c4 | d2 e4!<)! |!f! d2 c3 B | B4 z2 |!p! D2 G3 D | E2 E4 | F2 B3 F | %27
w: à ton|re- tour,|La mer|s'em- brase|à ton ré-|veil!|Le pré s'é-|mail- le,|Chêne et brous-|
 G2 G4 |!<(! =A2 d3 A | B2 B4 | e2 d2!<)!!ff! c2 | B4 z2 |!p! (e2 B3 G | (B3 A) G2) |!p! (e2 B3 G | %35
w: sail- le|Le bois tres-|sail- le|De te re-|voir!|L'ho- ri- zon|fu- * me,|Au loin, la|
 (B3 A) G2) | F2 G2 A2 | B2 c4 | (BE) A2 G2 | F4 z2 |!f! (e2 B3 G | (B3 A) G2) | (e2 B3 G | %43
w: bru- * me|Tremble et s'al-|lu- me,|Vas- te en- cen-|soir!|L'ho- ri- zon|fu- * me,|Au loin, la|
 B3 A G2) |!<(! F2 G2 A2 | B2 c4!<)! |!ff! (BE) G2 F2 | E4 !fermata!z2 | z6 | z6 | z6 | z6 | z6 | %53
w: bru- * me|Tremble et s'al-|lu- me,|Vas- te en- cen-|soir!||||||
 z6 | z6 | z6 |!p!!<(! E2 F4 | G2 A4 | B2 c4!<)! | F2 G2 z2 |!f! B2 c4 | d2 e4 | d2 c3 B | B4 z2 | %64
w: |||Le rêve|obs- cur|ber- çait|nos cœurs;|Un noir|ban- deau|cou- vrait nos|yeux,|
!p!!<(! E2 F4 | G2 A4 | B2 c4!<)! | F2 G4 |!mf!!<(! B2 c4 | d2 e4 | d2!<)!!f! c3 B | B4 z2 | %72
w: Ban- nis|le songe|et les|ter- reurs,|Ral- lume|en nous|l'es- poir joy-|eux!|
!p! D2 G3 D | E2 E4 |!f! F2 B3 F | G2 G4 |!f! =A2 d3 A | B2 c4 |!ff! e2 d2 c2 | B4 z2 | %80
w: Dé- mons sans|nom- bre|De la nuit|som- bre,|Fuy- ez, dans|l'om- bre|pré- ci- pi-|tés!|
!p! (e2 B3 G | (B3 A) G2) | (e2 B3 G | (B3 A) G2) | F2 G2 A2 | B2 c4 | (BE) A2 G2 | F4 z2 | %88
w: O jour su-|bli- * me!|Le mal, le|cri- * me|Meurt dans l'a-|bî- me|De * tes clar-|tés!|
!f! (e2 B3 G | (B3 A) G2) | (e2 B3 G | B3 A G2) |!<(! F2 G2 A2 | B2 c4!<)! | %94
w: O jour su-|bli- * me!|Le mal, le|cri- * me|Meurt dans l'a-|bî- me|
!ff! (BE[Q:1/4=70]"^all." G2 F2) | E4 !fermata!z2 |] %96
w: De * tes clar-|tés!|
V:2
!p!!<(! [G,B,E]2 [B,DF]4 | [B,EG]2 [B,DA]4 | [B,EB]2 [CEc]4!<)! |!f! [DGd]2 [EGe]4 | %4
!>(! [CEc]2 [B,EB]4 | [B,DA]2 [B,EG]4 | [B,F-]4 F[B,E]!>)! | [G,B,E]4 z2 || %8
!p!!<(! [G,B,E]2 [B,DF]4 | [B,EG]2 [B,DA]4 | [B,EB]2 [CEc]4!<)! | [B,DF]2 [B,EG]4 | %12
 [B,EB]2 [CEc]4 | [DGd]2 [EGe]4 | [DFd]2 [EFc]3 [DFB] | [DFB]2 [B,DA]4 |!p!!<(! [G,B,E]2 [B,DF]4 | %17
 [B,EG]2 [B,DA]4 | [B,EB]2 [CEc]4!<)! | [B,DF]2 [B,EG]4 |!<(! [B,EB]2 [CEc]4 | [DGd]2 [EGe]4!<)! | %22
!f! [DFd]2 [EFc]3 [DFB] | [DFB]2 [B,DA]4 |!p! [=B,DG]2 [G,DG]4 | [G,EG]2 [G,EG]4 | [DFB]2 [B,FB]4 | %27
 [B,GB]2 [B,GB]4 |!<(! [^F=Ad]2 [DAd]4 | [DBd]2 [DBd]4 | [EGe]2 [DFd]2!<)!!ff! [EFc]2 | %31
 [DFB]2 [ABf]4 |!p! [Ge]2 [_de]2 [de]2 | [ce]2 [ce]2 [Be]2 |!p! [Ge]2 [_de]2 [de]2 | %35
 [ce]2 [ce]2 [Be]2 | [Ae]2 [Be]2 [ce]2 | [eg]2 [ea]4 | [eg]2 [cf]2 [Be]2 | [Ae]2!f! [FAd]4 | %40
!f! [EGe]2 [EGB]3 [EG] | [B,FB]3 [B,DA] [B,EG]2 | [EGe]2 [EGB]3 [EG] | [B,FB]3 [B,DA] [B,EG]2 | %44
!<(! [CEF]2 [B,EG]2 [CEA]2 | [B,EB]2 [CEc]4!<)! |!ff! [B,EB]2 [EGB]2 [B,DA]2 | %47
 [B,EG]4 !fermata!z2 |!p!!<(! [G,B,E]2 [B,DF]4 | [B,EG]2 [B,DA]4 | [B,EB]2 [CEc]4!<)! | %51
!f! [DGd]2 [EGe]4 |!>(! [CEc]2 [B,EB]4 | [B,DA]2 [B,EG]4 | [B,F-]4 F[B,E]!>)! | [G,B,E]4 z2 | %56
!p!!<(! [G,B,E]2 [B,DF]4 | [B,EG]2 [B,DA]4 | [B,EB]2!<)! [CEc]4 | [B,DF]2 [B,EG]4 | %60
!f! [B,EB]2 [CEc]4 | [DGd]2 [EGe]4 | [DFd]2 [EFc]3 [DFB] | [DFB]2 [B,DA]4 | %64
!p!!<(! [G,B,E]2 [B,DF]4 | [B,EG]2 [B,DA]4 | [B,EB]2 [CEc]4!<)! | [B,DF]2 [B,EG]4 | %68
!mf!!<(! [B,EB]2 [CEc]4 | [DGd]2 [EGe]4 | [DFd]2!<)!!f! [EFc]3 [DFB] | [DFB]2 [B,DA]4 | %72
!p! [=B,DG]2 [G,DG]4 | [G,EG]2 [G,EG]4 |!f! [DFB]2 [B,FB]4 | [B,GB]2 [B,GB]4 |!f! [^F=Ad]2 [DAd]4 | %77
 [DBd]2 [DBd]4 |!ff! [EGe]2 [DFd]2 [EFc]2 | [DFB]2 [ABf]4 |!p! [Ge]2 [_de]2 [de]2 | %81
 [ce]2 [ce]2 [Be]2 | [Ge]2 [_de]2 [de]2 | [ce]2 [ce]2 [Be]2 | [Ae]2 [Be]2 [ce]2 | [eg]2 [ea]4 | %86
 [eg]2 [cf]2 [Be]2 | [Ae]2!f! [FAd]4 |!f! [EGe]2 [EGB]3 [EG] | [B,FB]3 [B,DA] [B,EG]2 | %90
 [EGe]2 [EGB]3 [EG] | [B,FB]3 [B,DA] [B,EG]2 |!<(! [CEF]2 [B,EG]2 [CEA]2 | [B,EB]2 [CEc]4!<)! | %94
!ff! [B,EB]2"_all." [EGB]2 [B,DA]2 | [B,EG]4 !fermata!z2 |] %96
V:3
 [E,,E,]2 [B,,,B,,]4 | [E,,E,]2 [F,,F,]4 | [G,,G,]2 [A,,A,]4 | [B,,B,]2 [C,C]4 | %4
 [A,,A,]2 [G,,G,]4 | [F,,F,]2 [E,,E,]4 | [B,,,B,,]4- [B,,,B,,][E,,E,] | [E,,E,]4 z2 || %8
 [E,,E,]2 [B,,,B,,]4 | [E,,E,]2 [F,,F,]4 | [G,,G,]2 [A,,A,]4 | [B,,B,]2 [E,,E,]4 | %12
 [G,,G,]2 [A,,A,]4 | [=B,,=B,]2 [C,C]4 | [F,,F,]2 [=A,,=A,]3 [B,,B,] | [B,,B,]2 [F,,F,]4 | %16
 [E,,E,]2 [B,,,B,,]4 | [E,,E,]2 [F,,F,]4 | [G,,G,]2 [A,,A,]4 | [B,,B,]2 [E,,E,]4 | %20
 [G,,G,]2 [A,,A,]4 | [=B,,=B,]2 [C,C]4 | [F,,F,]2 [=A,,=A,]3 [B,,B,] | [B,,B,]2 [F,,F,]4 | %24
 [G,,,G,,]2 [=B,,,=B,,]4 | [C,,C,]2 [C,,C,]4 | [B,,,B,,]2 [D,,D,]4 | [E,,E,]2 [E,,E,]4 | %28
 [D,,D,]2 [^F,,^F,]4 | [G,,G,]2 [G,,G,]4 | [C,,C,]2 [F,,F,]2 [=A,,=A,]2 | [B,,B,]2 [D,,D,]4 | %32
!ped! z2[K:treble] B3 G | B3!ped-up! A G2 |[K:bass]!ped! z2[K:treble] B3 G | B3!ped-up! A G2 | %36
 (F2 G2 A2 | B2 c4 | BE A2 G2 | F2)[K:bass] [B,,,B,,]4 | [E,,E,]2 [G,,G,]3 [B,,B,] | %41
 [D,,D,]3 [F,,F,] [E,,E,]2 | [E,,E,]2 [G,,G,]3 [B,,B,] | [D,,D,]3 [F,,F,] [E,,E,]2 | %44
 [A,,A,]2 [G,,G,]2 [F,,F,]2 | [G,,G,]2 [A,,A,]4 | [G,,G,]2 [B,,B,]2 [B,,,B,,]2 | %47
 [E,,E,]4 !fermata!z2 | [E,,E,]2 [B,,,B,,]4 | [E,,E,]2 [F,,F,]4 | [G,,G,]2 [A,,A,]4 | %51
 [B,,B,]2 [C,C]4 | [A,,A,]2 [G,,G,]4 | [F,,F,]2 [E,,E,]4 | [B,,,B,,]4- [B,,,B,,][E,,E,] | %55
 [E,,E,]4 z2 | [E,,E,]2 [B,,,B,,]4 | [E,,E,]2 [F,,F,]4 | [G,,G,]2 [A,,A,]4 | [B,,B,]2 [E,,E,]4 | %60
 [G,,G,]2 [A,,A,]4 | [=B,,=B,]2 [C,C]4 | [F,,F,]2 [=A,,=A,]3 [B,,B,] | [B,,B,]2 [F,,F,]4 | %64
 [E,,E,]2 [B,,,B,,]4 | [E,,E,]2 [F,,F,]4 | [G,,G,]2 [A,,A,]4 | [B,,B,]2 [E,,E,]4 | %68
 [G,,G,]2 [A,,A,]4 | [=B,,=B,]2 [C,C]4 | [F,,F,]2 [=A,,=A,]3 [B,,B,] | [B,,B,]2 [F,,F,]4 | %72
 [G,,,G,,]2 [=B,,,=B,,]4 | [C,,C,]2 [C,,C,]4 | [B,,,B,,]2 [D,,D,]4 | [E,,E,]2 [E,,E,]4 | %76
 [D,,D,]2 [^F,,^F,]4 | [G,,G,]2 [G,,G,]4 | [C,,C,]2 [F,,F,]2 [=A,,=A,]2 | [B,,B,]2 [D,,D,]4 | %80
!ped! z2[K:treble] B3 G | B3!ped-up! A G2 |[K:bass]!ped! z2[K:treble] B3 G | B3!ped-up! A G2 | %84
 (F2 G2 A2 | B2 c4 | BE A2 G2 | F2)[K:bass] [B,,,B,,]4 | [E,,E,]2 [G,,G,]3 [B,,B,] | %89
 [D,,D,]3 [F,,F,] [E,,E,]2 | [E,,E,]2 [G,,G,]3 [B,,B,] | [D,,D,]3 [F,,F,] [E,,E,]2 | %92
 [A,,A,]2 [G,,G,]2 [F,,F,]2 | [G,,G,]2 [A,,A,]4 | [G,,G,]2 [B,,B,]2 [B,,,B,,]2 | %95
 [E,,E,]4 !fermata!z2 |] %96
V:4
 x6 | x6 | x6 | x6 | x6 | x6 | E2 D2- D G, | x6 || x6 | x6 | x6 | x6 | x6 | x6 | x6 | x6 | x6 | %17
 x6 | x6 | x6 | x6 | x6 | x6 | x6 | x6 | x6 | x6 | x6 | x6 | x6 | x6 | x6 | x6 | x6 | x6 | x6 | %36
 x6 | x6 | x6 | x6 | x6 | x6 | x6 | x6 | x6 | x6 | x6 | x6 | x6 | x6 | x6 | x6 | x6 | x6 | %54
 E2 D2- D G, | x6 | x6 | x6 | x6 | x6 | x6 | x6 | x6 | x6 | x6 | x6 | x6 | x6 | x6 | x6 | x6 | x6 | %72
 x6 | x6 | x6 | x6 | x6 | x6 | x6 | x6 | x6 | x6 | x6 | x6 | x6 | x6 | x6 | x6 | x6 | x6 | x6 | %91
 x6 | x6 | x6 | x6 | x6 |] %96
V:5
 x6 | x6 | x6 | x6 | x6 | x6 | x6 | x6 || x6 | x6 | x6 | x6 | x6 | x6 | x6 | x6 | x6 | x6 | x6 | %19
 x6 | x6 | x6 | x6 | x6 | x6 | x6 | x6 | x6 | x6 | x6 | x6 | x6 | [E,,E,]6-[K:treble] | %33
 [E,,E,]2 z2 z2 |[K:bass] [E,,E,]6-[K:treble] | [E,,E,]2 z2 z2 | x6 | x6 | x6 | x2[K:bass] x4 | %40
 x6 | x6 | x6 | x6 | x6 | x6 | x6 | x6 | x6 | x6 | x6 | x6 | x6 | x6 | x6 | x6 | x6 | x6 | x6 | %59
 x6 | x6 | x6 | x6 | x6 | x6 | x6 | x6 | x6 | x6 | x6 | x6 | x6 | x6 | x6 | x6 | x6 | x6 | x6 | %78
 x6 | x6 | [E,,E,]6-[K:treble] | [E,,E,]2 z2 z2 |[K:bass] [E,,E,]6-[K:treble] | [E,,E,]2 z2 z2 | %84
 x6 | x6 | x6 | x2[K:bass] x4 | x6 | x6 | x6 | x6 | x6 | x6 | x6 | x6 |] %96

